assets/src/images/icons/ic_alarm.svg

<svg width="42" height="50" viewBox="0 0 42 50" fill="none" xmlns="http://www.w3.org/2000/svg">
<path fill-rule="evenodd" clip-rule="evenodd" d="M20.679 1.57345L1.56584 7.41387V22.9272C1.56584 31.4915 5.97756 39.4108 13.1628 43.8037L20.679 48.3967L28.1947 43.804C35.38 39.4111 39.7922 31.4915 39.7922 22.9272V7.41387L20.679 1.57345ZM29.0127 45.1363L21.375 49.8037C20.9466 50.0654 20.4114 50.0654 19.983 49.8037L12.3451 45.1362C4.68673 40.4542 0 32.0255 0 22.9272V7.28346C0 6.67495 0.391873 6.13848 0.964099 5.96362L20.2903 0.0581134C20.5438 -0.0193711 20.8142 -0.0193711 21.0677 0.0581134L40.3939 5.96362C40.9661 6.13848 41.358 6.67495 41.358 7.28346V22.9272C41.358 32.0255 36.6711 40.4543 29.0127 45.1363Z" fill="#0EF5FF"/>
<path fill-rule="evenodd" clip-rule="evenodd" d="M12.6594 23.9325C12.6594 19.688 16.1185 16.2393 20.3673 16.2393C24.616 16.2393 28.0751 19.688 28.0751 23.9325V30.1166C29.2134 30.465 30.0444 31.5235 30.0444 32.7755V34.2494C30.0444 34.9728 29.4576 35.5559 28.7369 35.5559H11.9976C11.2769 35.5559 10.69 34.9728 10.69 34.2494V32.7755C10.69 31.5235 11.5211 30.465 12.6594 30.1166V23.9325ZM20.3673 17.8697C17.0156 17.8697 14.2898 20.5918 14.2898 23.9325V30.8104C14.2898 31.2606 13.9248 31.6256 13.4746 31.6256C12.8374 31.6256 12.3205 32.1437 12.3205 32.7755V33.9255H28.414V32.7755C28.414 32.1437 27.897 31.6256 27.2599 31.6256C26.8096 31.6256 26.4447 31.2606 26.4447 30.8104V23.9325C26.4447 20.5918 23.7189 17.8697 20.3673 17.8697ZM21.1498 20.6161C18.8838 20.6161 17.0417 22.4568 17.0417 24.7137C17.0417 25.1639 16.6767 25.5289 16.2265 25.5289C15.7762 25.5289 15.4112 25.1639 15.4112 24.7137C15.4112 21.553 17.9866 18.9856 21.1498 18.9856C21.6 18.9856 21.965 19.3506 21.965 19.8009C21.965 20.2511 21.6 20.6161 21.1498 20.6161Z" fill="#0EF5FF"/>
<path d="M20.2955 13.809C20.6327 13.809 20.9056 13.5367 20.9056 13.2002V10.7651C20.9055 10.4286 20.6326 10.1562 20.2955 10.1562C19.9583 10.1562 19.6854 10.4286 19.6854 10.7651V13.2003C19.6854 13.5367 19.9582 13.809 20.2955 13.809Z" fill="#0EF5FF"/>
<path d="M27.0059 15.9803C27.1619 15.9803 27.318 15.9208 27.4371 15.802L29.2679 13.9756C29.5061 13.7384 29.5061 13.3525 29.2679 13.1147C29.0296 12.8769 28.6437 12.8769 28.4055 13.1147L26.5748 14.9411C26.3365 15.1783 26.3365 15.5642 26.5748 15.802C26.6938 15.9208 26.8498 15.9803 27.0059 15.9803Z" fill="#0EF5FF"/>
<path d="M13.7624 15.802C13.8816 15.9208 14.0378 15.9803 14.1939 15.9803C14.3501 15.9803 14.5062 15.9208 14.6255 15.802C14.8639 15.5647 14.8639 15.1789 14.6255 14.9411L12.7957 13.1147C12.5572 12.8769 12.171 12.8769 11.9326 13.1147C11.6942 13.3519 11.6942 13.7378 11.9326 13.9756L13.7624 15.802Z" fill="#0EF5FF"/>
<path d="M34.0911 19.3603C33.9398 19.0594 33.5751 18.9393 33.2725 19.0879L30.8321 20.3058C30.5306 20.4562 30.409 20.822 30.5592 21.1229C30.6664 21.3364 30.8821 21.4594 31.1049 21.4594C31.1967 21.4594 31.2896 21.4386 31.3778 21.3952L33.8182 20.1774C34.1197 20.0269 34.2413 19.6612 34.0911 19.3603Z" fill="#0EF5FF"/>
<path d="M10.0968 21.4594C10.3196 21.4594 10.5353 21.3363 10.6425 21.1228C10.7927 20.8218 10.6711 20.456 10.3696 20.3055L7.92925 19.0874C7.62776 18.9399 7.26193 19.0589 7.11059 19.3598C6.96045 19.6608 7.08199 20.0266 7.38348 20.1771L9.82388 21.3952C9.91208 21.4386 10.005 21.4594 10.0968 21.4594Z" fill="#0EF5FF"/>
</svg>

<svg width="42" height="50" viewBox="0 0 42 50" fill="none" xmlns="http://www.w3.org/2000/svg"><path fill-rule="evenodd" clip-rule="evenodd" d="M20.679 1.573L1.566 7.413v15.514c0 8.564 4.412 16.484 11.597 20.877l7.516 4.593 7.516-4.593c7.185-4.393 11.597-12.313 11.597-20.877V7.414L20.68 1.574zm8.334 43.563l-7.638 4.668a1.332 1.332 0 01-1.392 0l-7.638-4.668C4.687 40.454 0 32.026 0 22.927V7.283c0-.608.392-1.145.964-1.32L20.29.059c.254-.077.524-.077.778 0l19.326 5.906c.572.174.964.71.964 1.32v15.643c0 9.099-4.687 17.527-12.345 22.21z" fill="#0EF5FF"/><path fill-rule="evenodd" clip-rule="evenodd" d="M12.66 23.933c0-4.245 3.459-7.694 7.707-7.694 4.249 0 7.708 3.449 7.708 7.694v6.184a2.784 2.784 0 011.97 2.659v1.473c0 .724-.587 1.307-1.308 1.307h-16.74c-.72 0-1.307-.583-1.307-1.307v-1.474c0-1.252.831-2.31 1.97-2.658v-6.184zm7.707-6.063c-3.351 0-6.077 2.722-6.077 6.063v6.877c0 .45-.365.816-.815.816-.638 0-1.155.518-1.155 1.15v1.15h16.094v-1.15c0-.632-.517-1.15-1.154-1.15a.815.815 0 01-.815-.816v-6.877c0-3.341-2.726-6.063-6.078-6.063zm.783 2.746a4.109 4.109 0 00-4.108 4.098.815.815 0 01-1.63 0c0-3.161 2.575-5.728 5.738-5.728a.815.815 0 010 1.63z" fill="#0EF5FF"/><path d="M20.296 13.809a.61.61 0 00.61-.609v-2.435a.61.61 0 00-1.22 0V13.2c0 .337.272.609.61.609zm6.71 2.171c.156 0 .312-.06.431-.178l1.83-1.826a.61.61 0 00-.862-.86l-1.83 1.825a.608.608 0 00.43 1.04zm-13.244-.178a.61.61 0 00.864-.86l-1.83-1.827a.611.611 0 00-.863 0 .608.608 0 000 .86l1.83 1.827zm20.329 3.558a.612.612 0 00-.819-.272l-2.44 1.218a.609.609 0 10.546 1.09l2.44-1.219a.609.609 0 00.273-.817zm-23.994 2.1a.61.61 0 00.273-1.154l-2.44-1.219a.61.61 0 10-.546 1.09l2.44 1.218a.616.616 0 00.273.064z" fill="#0EF5FF"/></svg>
